X: 310
T:Ce povre mendiant / Pauper sum ego
N: Derived from Jos2705-Ce_povre_mendiant__Pauper_sum_ego.krn
C: Josquin des Prez
%%abc-version 2.0
%%abcx-abcm2ps-target-version 5.9.1 (29 Sep 2008)
%%abc-creator hum2abc beta
%%abcx-conversion-date 2019/02/12 16:15:54
%%abc-edited-by Jesse Rodin
%%abc-edited-by Jesse Rodin; Victoria Chang 2011/05/30/
%%abcx-initial-encoding-date 2011/05/30/
%%humdrum-veritas 554065726
%%humdrum-veritas-data 808139330
%%linebreak <none>
%%barnumbers 0
L: 1/4
M: 2/1
Q: 1/2=120
V: 1 clef=treble
V: 2 clef=treble-8
V: 3 clef=bass
K: C
[V:1] E8 | 
[V:2] A8 | 
[V:3] z8 | 
[V:1] E6F2 | 
[V:2] A6GF | 
[V:3] z8 | 
[V:1] G4A4- | 
[V:2] E4F4- | 
[V:3] z8 | 
[V:1] A2G2F2ED | 
[V:2] F2E2D2CB, | 
[V:3] A,8 | 
[V:1] C4c4 | 
[V:2] A,4A,B,CD | 
[V:3] A,8 | 
[V:1] B3Ac4 | 
[V:2] E4A,4 | 
[V:3] G,4A,4 | 
[V:1] cBAGA4 | 
[V:2] A8 | 
[V:3] F,8 | 
[V:1] G8 | 
[V:2] B4c4- | 
[V:3] E,8 | 
[V:1] z4G4 | 
[V:2] c2BAB4 | 
[V:3] z8 | 
[V:1] A4c4 | 
[V:2] A6GF | 
[V:3] z8 | 
[V:1] B4BAGF | 
[V:2] E8 | 
[V:3] G,8 | 
[V:1] E4D4 | 
[V:2] z4B4 | 
[V:3] G,8 | 
[V:1] D4E4- | 
[V:2] A4B4- | 
[V:3] F,4G,4 | 
[V:1] E2F2G4- | 
[V:2] B2G3ABc | 
[V:3] E,8 | 
[V:1] G2FEF4 | 
[V:2] d2c4B2 | 
[V:3] D,8 | 
[V:1] E8 | 
[V:2] c3BG2A2- | 
[V:3] z8 | 
[V:1] z4B4 | 
[V:2] A2GFE4 | 
[V:3] z8 | 
[V:1] A6Bc | 
[V:2] z4D4 | 
[V:3] F,8 | 
[V:1] d4c4- | 
[V:2] DEFGA4 | 
[V:3] F,8 | 
[V:1] c2BAA2c2 | 
[V:2] G2c4A2 | 
[V:3] E,4F,4 | 
[V:1] B2A3GF2 | 
[V:2] B2c2d4 | 
[V:3] D,8 | 
[V:1] E4z2E2- | 
[V:2] G4A2G2- | 
[V:3] C,8 | 
[V:1] EFG2E2G2 | 
[V:2] G2FEA3G | 
[V:3] z8 | 
[V:1] F2E4DC | 
[V:2] A2G2A4 | 
[V:3] z8 | 
[V:1] B,8 | 
[V:2] G8 | 
[V:3] E,8 | 
[V:1] z4B4- | 
[V:2] z4G4 | 
[V:3] E,8 | 
[V:1] B4B4 | 
[V:2] F4G4- | 
[V:3] D,4E,4 | 
[V:1] c8 | 
[V:2] G2F2E4 | 
[V:3] C,8 | 
[V:1] d4dcBA | 
[V:2] D4d4 | 
[V:3] B,,8 | 
[V:1] G2c2B2A2- | 
[V:2] e4d2c2 | 
[V:3] z8 | 
[V:1] A2^G2A4 | 
[V:2] B4A4 | 
[V:3] z8 | 
[V:1] z4A4- | 
[V:2] z4F4- | 
[V:3] D,8 | 
[V:1] A2G2F4 | 
[V:2] F2G2A2B2 | 
[V:3] D,8 | 
[V:1] E4F4 | 
[V:2] c6BA | 
[V:3] C,4D,4 | 
[V:1] G2FED4 | 
[V:2] G2A4^G2 | 
[V:3] B,,8 | 
[V:1] C4z2c2- | 
[V:2] A6GF | 
[V:3] A,,8 | 
[V:1] c2B2A2c2- | 
[V:2] E2G2F2ED | 
[V:3] z8 | 
[V:1] c2BAG2c2- | 
[V:2] C2c2B2A2 | 
[V:3] z8 | 
[V:1] c2BAc3B | 
[V:2] e6de | 
[V:3] A,8 | 
[V:1] A2GFE2c2 | 
[V:2] f2e2c4 | 
[V:3] A,8 | 
[V:1] B2ABc2A2 | 
[V:2] d2e3dcB | 
[V:3] G,4A,4 | 
[V:1] d2c2A2c2- | 
[V:2] A3Bc2BA | 
[V:3] F,8 | 
[V:1] c2BAG2c2 | 
[V:2] G2c2B2e2- | 
[V:3] E,8- | 
[V:1] B2A4^G2 | 
[V:2] edc2B4 | 
[V:3] E,8 | 
[V:1] A8 |]  
[V:2] A8 |]  
[V:3] A,,8 |]  



